logo.svg

<?xml version="1.0" encoding="UTF-8" standalone="no"?>
<!-- Created with Inkscape (http://www.inkscape.org/) -->

<svg
   xmlns:dc="http://purl.org/dc/elements/1.1/"
   xmlns:cc="http://creativecommons.org/ns#"
   xmlns:rdf="http://www.w3.org/1999/02/22-rdf-syntax-ns#"
   xmlns:svg="http://www.w3.org/2000/svg"
   xmlns="http://www.w3.org/2000/svg"
   xmlns:sodipodi="http://sodipodi.sourceforge.net/DTD/sodipodi-0.dtd"
   xmlns:inkscape="http://www.inkscape.org/namespaces/inkscape"
   id="svg2"
   version="1.1"
   inkscape:version="0.48.5 r10040"
   width="1000"
   height="1000"
   sodipodi:docname="logo.svg">
  <metadata
     id="metadata8">
    <rdf:RDF>
      <cc:Work
         rdf:about="">
        <dc:format>image/svg+xml</dc:format>
        <dc:type
           rdf:resource="http://purl.org/dc/dcmitype/StillImage" />
        <dc:title />
      </cc:Work>
    </rdf:RDF>
  </metadata>
  <defs
     id="defs6" />
  <sodipodi:namedview
     pagecolor="#ffffff"
     bordercolor="#666666"
     borderopacity="1"
     objecttolerance="10"
     gridtolerance="10"
     guidetolerance="10"
     inkscape:pageopacity="0"
     inkscape:pageshadow="2"
     inkscape:window-width="1330"
     inkscape:window-height="1008"
     id="namedview4"
     showgrid="false"
     inkscape:zoom="0.472"
     inkscape:cx="448.6644"
     inkscape:cy="588.26777"
     inkscape:window-x="323"
     inkscape:window-y="74"
     inkscape:window-maximized="0"
     inkscape:current-layer="svg2" />
  <g
     id="g3837"
     style="fill:#00204b;fill-opacity:1">
    <g
       id="text2987"
       style="font-size:24px;font-style:normal;font-variant:normal;font-weight:normal;font-stretch:normal;line-height:125%;letter-spacing:0px;word-spacing:0px;fill-opacity:1;stroke:none;font-family:Imaki;-inkscape-font-specification:Imaki;opacity:1;fill:#00204b">
      <path
         id="path3959"
         style="font-size:95px;letter-spacing:3.11999988999999989px;-inkscape-font-specification:Imaki;fill:#00204b;fill-opacity:1"
         d="m 93.937442,688.84698 0,-25.97656 -12.756347,0 c -10.050479,6e-5 -15.075701,7.42192 -15.075684,22.26563 l 0,3.71093 27.832031,0 m -27.832031,11.13282 0,18.55468 -18.554687,0 0,-33.39843 c 10e-7,-22.26557 9.663891,-33.39837 28.991699,-33.39844 l 35.949707,0 0,66.79687 -18.554688,0 0,-18.55468 -27.832031,0" />
      <path
         id="path3961"
         style="font-size:95px;letter-spacing:3.11999988999999989px;-inkscape-font-specification:Imaki;fill:#00204b;fill-opacity:1"
         d="m 158.51984,651.73761 c 13.14286,7e-5 19.7143,6.4942 19.71436,19.48242 -6e-5,6.43233 -1.45351,11.08646 -4.36035,13.9624 2.90684,2.87601 4.36029,7.53014 4.36035,13.96241 l 0,19.34326 -18.55469,0.0464 0,-19.38964 c -4e-5,-5.56639 -3.47904,-8.34959 -10.43701,-8.34961 l -10.43701,0 0,27.73925 -18.5083,0 -0.0464,-66.79687 38.26904,0 m -19.71435,27.83203 10.43701,0 c 6.95797,4e-5 10.43697,-2.78316 10.43701,-8.34961 -4e-5,-5.56635 -3.47904,-8.34955 -10.43701,-8.34961 l -10.43701,0 0,16.69922" />
      <path
         id="path3963"
         style="font-size:95px;letter-spacing:3.11999988999999989px;-inkscape-font-specification:Imaki;fill:#00204b;fill-opacity:1"
         d="m 225.51435,671.22003 0,-19.38965 18.55469,-0.0928 0,19.48242 c -6e-5,6.43233 -1.45351,11.08646 -4.36035,13.9624 2.90684,2.87601 4.36029,7.53014 4.36035,13.96241 l 0,19.34326 -18.55469,0.0464 0,-19.38964 c -4e-5,-5.56639 -3.47904,-8.34959 -10.43701,-8.34961 l -10.43701,0 0,27.73925 -18.5083,0 0,-27.73925 -0.0464,0 0,-39.05762 18.55469,0 0,27.83203 10.43701,0 c 6.95797,4e-5 10.43697,-2.78316 10.43701,-8.34961" />
      <path
         id="path3965"
         style="font-size:95px;letter-spacing:3.11999988999999989px;-inkscape-font-specification:Imaki;fill:#00204b;fill-opacity:1"
         d="m 270.7535,690.70245 c 0.89679,11.13283 5.82924,16.69923 14.79737,16.69922 l 24.35302,0 0,11.13281 -28.9917,0 c -19.3278,0 -28.99169,-11.1328 -28.9917,-33.39843 1e-5,-22.26557 9.6639,-33.39837 28.9917,-33.39844 l 28.9917,0 0,11.13281 -24.35302,0 c -8.96813,6e-5 -13.90058,5.56646 -14.79737,16.69922 l 34.51172,0 0,11.13281 -34.51172,0" />
      <path
         id="path3967"
         style="font-size:95px;letter-spacing:3.11999988999999989px;-inkscape-font-specification:Imaki;fill:#00204b;fill-opacity:1"
         d="m 381.17806,651.73761 0,66.79687 -18.5083,0 -0.0464,-66.79687 18.55469,0" />
      <path
         id="path3969"
         style="font-size:95px;letter-spacing:3.11999988999999989px;-inkscape-font-specification:Imaki;fill:#00204b;fill-opacity:1"
         d="m 407.49142,718.53448 -18.5083,0 -0.0464,-66.79687 35.94971,0 c 19.32774,7e-5 28.99163,11.13287 28.9917,33.39844 l 0,33.39843 -18.55469,0 0,-33.39843 c -5e-5,-14.84371 -5.02527,-22.26557 -15.07569,-22.26563 l -12.75634,0 0,55.66406" />
      <path
         id="path3971"
         style="font-size:95px;letter-spacing:3.11999988999999989px;-inkscape-font-specification:Imaki;fill:#00204b;fill-opacity:1"
         d="m 480.19149,662.87042 0,44.53125 12.75635,0 c 10.05041,1e-5 15.07564,-7.42186 15.07568,-22.26562 -4e-5,-14.84371 -5.02527,-22.26557 -15.07568,-22.26563 l -12.75635,0 m 17.39502,-11.13281 c 19.32775,7e-5 28.99164,11.13287 28.9917,33.39844 -6e-5,22.26563 -9.66395,33.39843 -28.9917,33.39843 l -35.90332,0 -0.0464,-66.79687 35.94971,0" />
      <path
         id="path3973"
         style="font-size:95px;letter-spacing:3.11999988999999989px;-inkscape-font-specification:Imaki;fill:#00204b;fill-opacity:1"
         d="m 583.04296,651.784 18.55469,-0.0464 0.0464,33.39844 c -7e-5,22.26563 -9.66396,33.39843 -28.9917,33.39843 l -9.27735,0 c -19.32781,0 -29.00716,-11.1328 -29.03808,-33.39843 l 0,-33.44483 18.55468,0.0464 0,32.4707 0.0464,0 c -2e-5,15.46226 5.02521,23.19337 15.07568,23.19336 10.05042,1e-5 15.07564,-7.42186 15.07569,-22.26562 l -0.0464,-33.35205" />
      <path
         id="path3975"
         style="font-size:95px;letter-spacing:3.11999988999999989px;-inkscape-font-specification:Imaki;fill:#00204b;fill-opacity:1"
         d="m 629.16341,690.70245 c -13.14291,3e-5 -19.71435,-6.4941 -19.71435,-19.48242 0,-12.98822 6.57144,-19.48235 19.71435,-19.48242 l 38.26905,0 0,11.13281 -28.9917,0 c -6.95803,6e-5 -10.43703,2.78326 -10.43701,8.34961 -2e-5,5.56645 3.47898,8.34965 10.43701,8.34961 l 9.27734,0 c 13.14285,4e-5 19.7143,6.49417 19.71436,19.48242 -6e-5,12.98829 -6.57151,19.48242 -19.71436,19.48242 l -38.26904,0 0,-11.13281 28.9917,0 c 6.95797,1e-5 10.43697,-2.78319 10.43701,-8.34961 -4e-5,-5.56638 -3.47904,-8.34958 -10.43701,-8.34961 l -9.27735,0" />
      <path
         id="path3977"
         style="font-size:95px;letter-spacing:3.11999988999999989px;-inkscape-font-specification:Imaki;fill:#00204b;fill-opacity:1"
         d="m 735.58663,651.73761 0,11.13281 -20.87402,0 0,55.66406 -18.5083,0 -0.0464,-55.66406 -20.87402,0 0,-11.13281 60.30273,0" />
      <path
         id="path3979"
         style="font-size:95px;letter-spacing:3.11999988999999989px;-inkscape-font-specification:Imaki;fill:#00204b;fill-opacity:1"
         d="m 781.6144,651.73761 c 13.14286,7e-5 19.7143,6.4942 19.71436,19.48242 -6e-5,6.43233 -1.45351,11.08646 -4.36035,13.9624 2.90684,2.87601 4.36029,7.53014 4.36035,13.96241 l 0,19.34326 -18.55469,0.0464 0,-19.38964 c -4e-5,-5.56639 -3.47904,-8.34959 -10.43701,-8.34961 l -10.43701,0 0,27.73925 -18.5083,0 -0.0464,-66.79687 38.26904,0 m -19.71435,27.83203 10.43701,0 c 6.95797,4e-5 10.43697,-2.78316 10.43701,-8.34961 -4e-5,-5.56635 -3.47904,-8.34955 -10.43701,-8.34961 l -10.43701,0 0,16.69922" />
      <path
         id="path3981"
         style="font-size:95px;letter-spacing:3.11999988999999989px;-inkscape-font-specification:Imaki;fill:#00204b;fill-opacity:1"
         d="m 827.73489,651.73761 0,66.79687 -18.5083,0 -0.0464,-66.79687 18.55469,0" />
      <path
         id="path3983"
         style="font-size:95px;letter-spacing:3.11999988999999989px;-inkscape-font-specification:Imaki;fill:#00204b;fill-opacity:1"
         d="m 854.32656,690.70245 c 0.89679,11.13283 5.82924,16.69923 14.79736,16.69922 l 24.35303,0 0,11.13281 -28.9917,0 c -19.32781,0 -28.9917,-11.1328 -28.9917,-33.39843 0,-22.26557 9.66389,-33.39837 28.9917,-33.39844 l 28.9917,0 0,11.13281 -24.35303,0 c -8.96812,6e-5 -13.90057,5.56646 -14.79736,16.69922 l 34.51172,0 0,11.13281 -34.51172,0" />
      <path
         id="path3985"
         style="font-size:95px;letter-spacing:3.11999988999999989px;-inkscape-font-specification:Imaki;fill:#00204b;fill-opacity:1"
         d="m 921.04275,690.70245 c -13.14291,3e-5 -19.71436,-6.4941 -19.71436,-19.48242 0,-12.98822 6.57145,-19.48235 19.71436,-19.48242 l 38.26904,0 0,11.13281 -28.9917,0 c -6.95803,6e-5 -10.43703,2.78326 -10.43701,8.34961 -2e-5,5.56645 3.47898,8.34965 10.43701,8.34961 l 9.27734,0 c 13.14286,4e-5 19.7143,6.49417 19.71436,19.48242 -6e-5,12.98829 -6.5715,19.48242 -19.71436,19.48242 l -38.26904,0 0,-11.13281 28.9917,0 c 6.95797,1e-5 10.43697,-2.78319 10.43701,-8.34961 -4e-5,-5.56638 -3.47904,-8.34958 -10.43701,-8.34961 l -9.27734,0" />
    </g>
    <g
       style="fill:#00204b;fill-opacity:1;opacity:1"
       id="g3775">
      <path
         inkscape:connector-curvature="0"
         style="opacity:1;fill-opacity:1;fill-rule:nonzero;stroke:none;fill:#00204b"
         d="m 514.25,113.125 c -4.57045,0.25278 -9.11023,3.83974 -12.9375,10.46875 l -247.875,424.6875 -3.40625,11.4375 -22.5,0.0625 c -19.33638,0 -18.51869,31.40625 1.34375,31.40625 l 68.625,0.28125 c 18.20859,0 21.45139,-31.15625 1.34375,-31.15625 l -12.125,0 -0.34375,-4.25 212.28125,-364.84375 104.34375,179 -0.0625,-30.25 -9.75,-0.34375 c -5.21997,-0.44723 -4.7284,-1.2136 0,-11.46875 l 14.75,-25.59375 c 5.3254,-9.22387 4.14,-9.44617 9.59375,0 l 15.3125,26.5625 c 3.37659,5.33236 4.73385,11.44045 0,11.34375 l -14.3125,0 0,56.40625 91.15625,156.375 0.375,7.0625 -18.125,0.0625 c -15.3659,0 -15.15885,31.40625 0.78125,31.40625 l 102.90625,0 c 19.64789,0 19.54647,-31.46875 0,-31.46875 l -19.09375,-0.125 -1.46875,-7.8125 -247.78125,-429.6875 c -3.87378,-6.7096 -8.4608,-9.81528 -13.03125,-9.5625 z M 618.53125,396.875 603,370.21875 l 0.46875,210.125 c 0,13.64178 15.0625,12.97994 15.0625,0 l 0,-183.46875 z"
         id="path2991" />
      <path
         style="opacity:1;fill-opacity:1;fill-rule:nonzero;stroke:none;fill:#00204b"
         d="m 415.37712,444.53125 c -3.35091,1.93465 -6.00282,9.19086 -6.03337,14.84375 -0.022,4.07868 2.1497,9.64715 4.17532,10.84375 l 38.07415,0 c 2.28379,0 3.84428,-7.76549 3.84428,-11.70445 0,-6.64484 -2.0882,-11.51418 -6.36441,-13.98305 z"
         id="path3923"
         inkscape:connector-curvature="0"
         sodipodi:nodetypes="csccscc" />
      <path
         style="opacity:1;fill-opacity:1;fill-rule:nonzero;stroke:none;fill:#00204b"
         d="m 485.22715,444.53125 c -3.35091,1.93465 -6.00282,9.19086 -6.03337,14.84375 -0.022,4.07868 2.1497,9.64715 4.17532,10.84375 l 38.07415,0 c 2.28379,0 3.84428,-7.76549 3.84428,-11.70445 0,-6.64484 -2.0882,-11.51418 -6.36441,-13.98305 z"
         id="path3923-4"
         inkscape:connector-curvature="0"
         sodipodi:nodetypes="csccscc" />
    </g>
  </g>
</svg>

<?xml version="1.0" encoding="UTF-8" standalone="no"?>
<!-- Created with Inkscape (http://www.inkscape.org/) -->

<svg
   xmlns:dc="http://purl.org/dc/elements/1.1/"
   xmlns:cc="http://creativecommons.org/ns#"
   xmlns:rdf="http://www.w3.org/1999/02/22-rdf-syntax-ns#"
   xmlns:svg="http://www.w3.org/2000/svg"
   xmlns="http://www.w3.org/2000/svg"
   xmlns:sodipodi="http://sodipodi.sourceforge.net/DTD/sodipodi-0.dtd"
   xmlns:inkscape="http://www.inkscape.org/namespaces/inkscape"
   id="svg2"
   version="1.1"
   inkscape:version="0.48.5 r10040"
   width="1000"
   height="1000"
   sodipodi:docname="logo_transparent.svg">
  <metadata
     id="metadata8">
    <rdf:RDF>
      <cc:Work
         rdf:about="">
        <dc:format>image/svg+xml</dc:format>
        <dc:type
           rdf:resource="http://purl.org/dc/dcmitype/StillImage" />
        <dc:title />
      </cc:Work>
    </rdf:RDF>
  </metadata>
  <defs
     id="defs6" />
  <sodipodi:namedview
     pagecolor="#ffffff"
     bordercolor="#666666"
     borderopacity="1"
     objecttolerance="10"
     gridtolerance="10"
     guidetolerance="10"
     inkscape:pageopacity="0"
     inkscape:pageshadow="2"
     inkscape:window-width="984"
     inkscape:window-height="776"
     id="namedview4"
     showgrid="false"
     inkscape:zoom="0.944"
     inkscape:cx="532.1976"
     inkscape:cy="511.94548"
     inkscape:window-x="709"
     inkscape:window-y="247"
     inkscape:window-maximized="0"
     inkscape:current-layer="svg2" />
  <g
     style="font-size:24px;font-style:normal;font-variant:normal;font-weight:normal;font-stretch:normal;line-height:125%;letter-spacing:0px;word-spacing:0px;fill:#00204b;fill-opacity:1;stroke:none;font-family:Imaki;-inkscape-font-specification:Imaki;opacity:0.2"
     id="text2987">
    <path
       d="m 93.937442,688.84698 0,-25.97656 -12.756347,0 c -10.050479,6e-5 -15.075701,7.42192 -15.075684,22.26563 l 0,3.71093 27.832031,0 m -27.832031,11.13282 0,18.55468 -18.554687,0 0,-33.39843 c 10e-7,-22.26557 9.663891,-33.39837 28.991699,-33.39844 l 35.949707,0 0,66.79687 -18.554688,0 0,-18.55468 -27.832031,0"
       style="font-size:95px;letter-spacing:3.11999988999999989px;fill:#00204b;-inkscape-font-specification:Imaki"
       id="path3959" />
    <path
       d="m 158.51984,651.73761 c 13.14286,7e-5 19.7143,6.4942 19.71436,19.48242 -6e-5,6.43233 -1.45351,11.08646 -4.36035,13.9624 2.90684,2.87601 4.36029,7.53014 4.36035,13.96241 l 0,19.34326 -18.55469,0.0464 0,-19.38964 c -4e-5,-5.56639 -3.47904,-8.34959 -10.43701,-8.34961 l -10.43701,0 0,27.73925 -18.5083,0 -0.0464,-66.79687 38.26904,0 m -19.71435,27.83203 10.43701,0 c 6.95797,4e-5 10.43697,-2.78316 10.43701,-8.34961 -4e-5,-5.56635 -3.47904,-8.34955 -10.43701,-8.34961 l -10.43701,0 0,16.69922"
       style="font-size:95px;letter-spacing:3.11999988999999989px;fill:#00204b;-inkscape-font-specification:Imaki"
       id="path3961" />
    <path
       d="m 225.51435,671.22003 0,-19.38965 18.55469,-0.0928 0,19.48242 c -6e-5,6.43233 -1.45351,11.08646 -4.36035,13.9624 2.90684,2.87601 4.36029,7.53014 4.36035,13.96241 l 0,19.34326 -18.55469,0.0464 0,-19.38964 c -4e-5,-5.56639 -3.47904,-8.34959 -10.43701,-8.34961 l -10.43701,0 0,27.73925 -18.5083,0 0,-27.73925 -0.0464,0 0,-39.05762 18.55469,0 0,27.83203 10.43701,0 c 6.95797,4e-5 10.43697,-2.78316 10.43701,-8.34961"
       style="font-size:95px;letter-spacing:3.11999988999999989px;fill:#00204b;-inkscape-font-specification:Imaki"
       id="path3963" />
    <path
       d="m 270.7535,690.70245 c 0.89679,11.13283 5.82924,16.69923 14.79737,16.69922 l 24.35302,0 0,11.13281 -28.9917,0 c -19.3278,0 -28.99169,-11.1328 -28.9917,-33.39843 1e-5,-22.26557 9.6639,-33.39837 28.9917,-33.39844 l 28.9917,0 0,11.13281 -24.35302,0 c -8.96813,6e-5 -13.90058,5.56646 -14.79737,16.69922 l 34.51172,0 0,11.13281 -34.51172,0"
       style="font-size:95px;letter-spacing:3.11999988999999989px;fill:#00204b;-inkscape-font-specification:Imaki"
       id="path3965" />
    <path
       d="m 381.17806,651.73761 0,66.79687 -18.5083,0 -0.0464,-66.79687 18.55469,0"
       style="font-size:95px;letter-spacing:3.11999988999999989px;fill:#00204b;-inkscape-font-specification:Imaki"
       id="path3967" />
    <path
       d="m 407.49142,718.53448 -18.5083,0 -0.0464,-66.79687 35.94971,0 c 19.32774,7e-5 28.99163,11.13287 28.9917,33.39844 l 0,33.39843 -18.55469,0 0,-33.39843 c -5e-5,-14.84371 -5.02527,-22.26557 -15.07569,-22.26563 l -12.75634,0 0,55.66406"
       style="font-size:95px;letter-spacing:3.11999988999999989px;fill:#00204b;-inkscape-font-specification:Imaki"
       id="path3969" />
    <path
       d="m 480.19149,662.87042 0,44.53125 12.75635,0 c 10.05041,1e-5 15.07564,-7.42186 15.07568,-22.26562 -4e-5,-14.84371 -5.02527,-22.26557 -15.07568,-22.26563 l -12.75635,0 m 17.39502,-11.13281 c 19.32775,7e-5 28.99164,11.13287 28.9917,33.39844 -6e-5,22.26563 -9.66395,33.39843 -28.9917,33.39843 l -35.90332,0 -0.0464,-66.79687 35.94971,0"
       style="font-size:95px;letter-spacing:3.11999988999999989px;fill:#00204b;-inkscape-font-specification:Imaki"
       id="path3971" />
    <path
       d="m 583.04296,651.784 18.55469,-0.0464 0.0464,33.39844 c -7e-5,22.26563 -9.66396,33.39843 -28.9917,33.39843 l -9.27735,0 c -19.32781,0 -29.00716,-11.1328 -29.03808,-33.39843 l 0,-33.44483 18.55468,0.0464 0,32.4707 0.0464,0 c -2e-5,15.46226 5.02521,23.19337 15.07568,23.19336 10.05042,1e-5 15.07564,-7.42186 15.07569,-22.26562 l -0.0464,-33.35205"
       style="font-size:95px;letter-spacing:3.11999988999999989px;fill:#00204b;-inkscape-font-specification:Imaki"
       id="path3973" />
    <path
       d="m 629.16341,690.70245 c -13.14291,3e-5 -19.71435,-6.4941 -19.71435,-19.48242 0,-12.98822 6.57144,-19.48235 19.71435,-19.48242 l 38.26905,0 0,11.13281 -28.9917,0 c -6.95803,6e-5 -10.43703,2.78326 -10.43701,8.34961 -2e-5,5.56645 3.47898,8.34965 10.43701,8.34961 l 9.27734,0 c 13.14285,4e-5 19.7143,6.49417 19.71436,19.48242 -6e-5,12.98829 -6.57151,19.48242 -19.71436,19.48242 l -38.26904,0 0,-11.13281 28.9917,0 c 6.95797,1e-5 10.43697,-2.78319 10.43701,-8.34961 -4e-5,-5.56638 -3.47904,-8.34958 -10.43701,-8.34961 l -9.27735,0"
       style="font-size:95px;letter-spacing:3.11999988999999989px;fill:#00204b;-inkscape-font-specification:Imaki"
       id="path3975" />
    <path
       d="m 735.58663,651.73761 0,11.13281 -20.87402,0 0,55.66406 -18.5083,0 -0.0464,-55.66406 -20.87402,0 0,-11.13281 60.30273,0"
       style="font-size:95px;letter-spacing:3.11999988999999989px;fill:#00204b;-inkscape-font-specification:Imaki"
       id="path3977" />
    <path
       d="m 781.6144,651.73761 c 13.14286,7e-5 19.7143,6.4942 19.71436,19.48242 -6e-5,6.43233 -1.45351,11.08646 -4.36035,13.9624 2.90684,2.87601 4.36029,7.53014 4.36035,13.96241 l 0,19.34326 -18.55469,0.0464 0,-19.38964 c -4e-5,-5.56639 -3.47904,-8.34959 -10.43701,-8.34961 l -10.43701,0 0,27.73925 -18.5083,0 -0.0464,-66.79687 38.26904,0 m -19.71435,27.83203 10.43701,0 c 6.95797,4e-5 10.43697,-2.78316 10.43701,-8.34961 -4e-5,-5.56635 -3.47904,-8.34955 -10.43701,-8.34961 l -10.43701,0 0,16.69922"
       style="font-size:95px;letter-spacing:3.11999988999999989px;fill:#00204b;-inkscape-font-specification:Imaki"
       id="path3979" />
    <path
       d="m 827.73489,651.73761 0,66.79687 -18.5083,0 -0.0464,-66.79687 18.55469,0"
       style="font-size:95px;letter-spacing:3.11999988999999989px;fill:#00204b;-inkscape-font-specification:Imaki"
       id="path3981" />
    <path
       d="m 854.32656,690.70245 c 0.89679,11.13283 5.82924,16.69923 14.79736,16.69922 l 24.35303,0 0,11.13281 -28.9917,0 c -19.32781,0 -28.9917,-11.1328 -28.9917,-33.39843 0,-22.26557 9.66389,-33.39837 28.9917,-33.39844 l 28.9917,0 0,11.13281 -24.35303,0 c -8.96812,6e-5 -13.90057,5.56646 -14.79736,16.69922 l 34.51172,0 0,11.13281 -34.51172,0"
       style="font-size:95px;letter-spacing:3.11999988999999989px;fill:#00204b;-inkscape-font-specification:Imaki"
       id="path3983" />
    <path
       d="m 921.04275,690.70245 c -13.14291,3e-5 -19.71436,-6.4941 -19.71436,-19.48242 0,-12.98822 6.57145,-19.48235 19.71436,-19.48242 l 38.26904,0 0,11.13281 -28.9917,0 c -6.95803,6e-5 -10.43703,2.78326 -10.43701,8.34961 -2e-5,5.56645 3.47898,8.34965 10.43701,8.34961 l 9.27734,0 c 13.14286,4e-5 19.7143,6.49417 19.71436,19.48242 -6e-5,12.98829 -6.5715,19.48242 -19.71436,19.48242 l -38.26904,0 0,-11.13281 28.9917,0 c 6.95797,1e-5 10.43697,-2.78319 10.43701,-8.34961 -4e-5,-5.56638 -3.47904,-8.34958 -10.43701,-8.34961 l -9.27734,0"
       style="font-size:95px;letter-spacing:3.11999988999999989px;fill:#00204b;-inkscape-font-specification:Imaki"
       id="path3985" />
  </g>
  <path
     style="fill:#00204b;fill-opacity:1;fill-rule:nonzero;stroke:none;stroke-width:1px;stroke-linecap:round;stroke-linejoin:round;stroke-opacity:1;opacity:0.20000000000000001"
     d="M 514.25 113.125 C 509.67955 113.37778 505.13977 116.96474 501.3125 123.59375 L 253.4375 548.28125 L 250.03125 559.71875 L 227.53125 559.78125 C 208.19487 559.78125 209.01256 591.1875 228.875 591.1875 L 297.5 591.46875 C 315.70859 591.46875 318.95139 560.3125 298.84375 560.3125 L 286.71875 560.3125 L 286.375 556.0625 L 498.65625 191.21875 L 603 370.21875 L 602.9375 339.96875 L 593.1875 339.625 C 587.96753 339.17777 588.4591 338.4114 593.1875 328.15625 L 607.9375 302.5625 C 613.2629 293.33863 612.0775 293.11633 617.53125 302.5625 L 632.84375 329.125 C 636.22034 334.45736 637.5776 340.56545 632.84375 340.46875 L 618.53125 340.46875 L 618.53125 396.875 L 709.6875 553.25 L 710.0625 560.3125 L 691.9375 560.375 C 676.5716 560.375 676.77865 591.78125 692.71875 591.78125 L 795.625 591.78125 C 815.27289 591.78125 815.17147 560.3125 795.625 560.3125 L 776.53125 560.1875 L 775.0625 552.375 L 527.28125 122.6875 C 523.40747 115.9779 518.82045 112.87222 514.25 113.125 z M 618.53125 396.875 L 603 370.21875 L 603.46875 580.34375 C 603.46875 593.98553 618.53125 593.32369 618.53125 580.34375 L 618.53125 396.875 z "
     id="path2991" />
  <path
     style="opacity:0.2;fill:#00204b;fill-opacity:1;fill-rule:nonzero;stroke:none"
     d="m 415.37712,444.53125 c -3.35091,1.93465 -6.00282,9.19086 -6.03337,14.84375 -0.022,4.07868 2.1497,9.64715 4.17532,10.84375 l 38.07415,0 c 2.28379,0 3.84428,-7.76549 3.84428,-11.70445 0,-6.64484 -2.0882,-11.51418 -6.36441,-13.98305 z"
     id="path3923"
     inkscape:connector-curvature="0"
     sodipodi:nodetypes="csccscc" />
  <path
     style="fill:#00204b;fill-opacity:1;fill-rule:nonzero;stroke:none;opacity:0.2"
     d="m 485.22715,444.53125 c -3.35091,1.93465 -6.00282,9.19086 -6.03337,14.84375 -0.022,4.07868 2.1497,9.64715 4.17532,10.84375 l 38.07415,0 c 2.28379,0 3.84428,-7.76549 3.84428,-11.70445 0,-6.64484 -2.0882,-11.51418 -6.36441,-13.98305 z"
     id="path3923-4"
     inkscape:connector-curvature="0"
     sodipodi:nodetypes="csccscc" />
</svg>
